X:1
T:Mt. Holyoke, 87.87 D
T:Mt. Holyoke, 87.87 D
T:Maurice Lawton Wostenholm, 1910
T:Public Domain Courtesy of the Cyber Hymnal™
C:Maurice Lawton Wostenholm, 1910
Z:Public Domain
Z:Courtesy of the Cyber Hymnal™
%%score ( 1 2 ) ( 3 4 )
L:1/8
Q:1/4=115
M:4/4
K:G
V:1 treble 
V:2 treble 
V:3 bass 
V:4 bass 
V:1
 D2 D2 | [GB]3 [GB] [FA]2 [FB]2 | [DG]2 [B,D]2 D2 D2 | [GB]3 [GB] [FA]2 [FB]2 | [DG]4 [DE]2 [DE]2 | %5
 [Cc]3 [Ac] [=FB]2 [Ec]2 | [EB]2 [EA]2 [FB]2 [Gc]2 | [Gd]3 [DB] [B,A]2 [B,G]2 | [CE]4 [A,D]2 D2 | %9
 [GB]3 [DB] [DA]2 [DB]2 | [EA]2 [E^G]2 [B,E]2 E2 | [Ee]3 [Ee] [=Fd]2 [Ee]2 | [Ec]4 [^DB]2 [FA]2 | %13
 [EG]2 [^DF]2 [EG]2 [E^G]2 | [EA]2 [DB]2 [Cc]2 [GA]2 | d4 d4 | d6 [FB]2 | [DG]4 |] %18
V:2
 D2 D2 | x8 | x4 D2 D2 | x8 | x8 | x8 | x8 | x8 | x6 D2 | x8 | x6 E2 | x8 | x8 | x8 | x8 | %15
 (G2 B2) (A2 G2) | (F2 E2 D2) x2 | x4 |] %18
V:3
 D,2 D,2 | [G,D]3 [G,D] [D,C]2 [D,D]2 | [G,B,]2 [G,,G,]2 D,2 D,2 | [G,D]3 [G,D] [D,C]2 [D,D]2 | %4
 [G,B,]4 [^G,B,]2 [G,B,]2 | A,3 [A,E] [A,D]2 [^G,D]2 | [A,D]2 [A,,C]2 [D,D]2 [C,E]2 | %7
 [B,,D]3 [B,,G,] [E,G,]2 [E,G,]2 | [A,,G,]4 [D,F,]2 D,2 | [G,D]3 G, [=F,A,]2 [F,A,]2 | %10
 [E,B,]2 [E,B,]2 [D,^G,]2 [D,G,]2 | [C,A,]3 [C,A,] [B,,A,]2 [E,^G,]2 | [A,,A,]4 [B,,F,]2 [^D,B,]2 | %13
 [E,B,]2 [F,A,]2 [E,B,]2 [D,B,]2 | [C,A,]2 [B,,^G,]2 [A,,A,]2 [E,C]2 | (B,2 D2) (C2 B,2) | %16
 (A,2 G,2 F,2) [D,C]2 | [G,,G,B,]4 |] %18
V:4
 D,2 D,2 | x8 | x4 D,2 D,2 | x8 | x8 | A,3 x5 | x8 | x8 | x6 D,2 | x3 G, x4 | x8 | x8 | x8 | x8 | %14
 x8 | D,4 D,4 | D,6 x2 | x4 |] %18

